packages/icons/src/components/Icon/assets/small-outline/help-circle.svg

<svg width="16" height="16" viewBox="0 0 16 16" fill="none" xmlns="http://www.w3.org/2000/svg">
<path fill-rule="evenodd" clip-rule="evenodd" d="M8 2.3125C4.85888 2.3125 2.3125 4.85888 2.3125 8C2.3125 11.1411 4.85888 13.6875 8 13.6875C11.1411 13.6875 13.6875 11.1411 13.6875 8C13.6875 4.85888 11.1411 2.3125 8 2.3125ZM1 8C1 4.13401 4.13401 1 8 1C11.866 1 15 4.13401 15 8C15 11.866 11.866 15 8 15C4.13401 15 1 11.866 1 8ZM9.06325 5.33529C8.48488 4.82921 7.51544 4.82921 6.93707 5.33529C6.66431 5.57395 6.24971 5.54631 6.01104 5.27355C5.77238 5.00079 5.80002 4.5862 6.07278 4.34753C7.146 3.40846 8.85432 3.40846 9.92754 4.34753C11.0521 5.33156 11.0521 6.96792 9.92754 7.95195C9.73766 8.1181 9.52876 8.25399 9.30887 8.3604C8.844 8.58538 8.65641 8.86764 8.65641 9.05729V9.58594C8.65641 9.94837 8.3626 10.2422 8.00016 10.2422C7.63772 10.2422 7.34391 9.94837 7.34391 9.58594V9.05729C7.34391 8.07909 8.15076 7.46275 8.73711 7.17899C8.85603 7.12143 8.96567 7.04957 9.06325 6.96419C9.59024 6.50308 9.59024 5.7964 9.06325 5.33529ZM7.34375 11.7005C7.34375 11.3381 7.63756 11.0443 8 11.0443H8.00529C8.36772 11.0443 8.66154 11.3381 8.66154 11.7005V11.7058C8.66154 12.0682 8.36772 12.3621 8.00529 12.3621H8C7.63756 12.3621 7.34375 12.0682 7.34375 11.7058V11.7005Z" fill="black"/>
</svg>

<svg xmlns="http://www.w3.org/2000/svg" width="16" height="16" fill="none" viewBox="0 0 16 16">
    <path fill="#000" fill-rule="evenodd" d="M8 2.313a5.687 5.687 0 1 0 0 11.374A5.687 5.687 0 0 0 8 2.313M1 8a7 7 0 1 1 14 0A7 7 0 0 1 1 8m8.063-2.665c-.578-.506-1.548-.506-2.126 0a.656.656 0 0 1-.864-.987c1.073-.94 2.781-.94 3.855 0 1.124.984 1.124 2.62 0 3.604-.19.166-.4.302-.62.408-.464.225-.652.508-.652.697v.529a.656.656 0 0 1-1.312 0v-.529c0-.978.807-1.594 1.393-1.878a1.5 1.5 0 0 0 .326-.215c.527-.46.527-1.168 0-1.629m-1.72 6.366c0-.363.295-.657.657-.657h.005c.363 0 .657.294.657.656v.006a.656.656 0 0 1-.657.656H8a.656.656 0 0 1-.656-.656z" clip-rule="evenodd"/>
</svg>
